X: 27
T:What You Need In The World
M:6/8
L:1/8
Q:80
C:Paul Bond
K:C
cc|"C"c>cc "Am"ccc|"C"ceg|
M:9/8
ag2- gzg|
M:6/8
"F"agf "C"edc|!
M:9/8
"Dm"Adc "G"BA2- AzG|
M:6/8
"F"Adc "G"BAB|"C"ceg "F"agf|"C"edc "Dm"cBc|"G"d3-z:||!
gg|"F"a>ba "C"g2g|
M:9/8
gfe "Am"e3-ezg/g/|
M:6/8
"F"agf "C"edc|
M:9/8
"Dm"Adc "G"BA2- AzG/G/|!
M:6/8
"F"Adc "G"BAB|"C"ceg agg|
"F"agf "C"edc|"Dm"Adc "G"BAG|
"F"Adc "G"BAB|"C"c6-|c4||
